svgs/light/cricket-bat-ball.svg

<svg xmlns="http://www.w3.org/2000/svg" viewBox="0 0 512 512"><!--! Font Awesome Pro 6.3.0 by @fontawesome - https://fontawesome.com License - https://fontawesome.com/license (Commercial License) Copyright 2023 Fonticons, Inc. --><path d="M416 236.5c0-12.35-4.711-24.7-14.13-34.12l-34.82-34.83l140.3-140.3C510.4 24.18 512 20.09 512 16C512 7.473 505.1 0 496 0c-4.094 0-8.185 1.561-11.31 4.686l-140.3 140.3L309.6 110.2c-9.439-9.441-21.81-14.17-34.17-14.17c-12.34 0-24.67 4.705-34.09 14.12c-246.7 246.7-241.4 235.5-241.4 256.7C-.0004 473.9 112.2 512 145.1 512c9.84 0 19.59-4.166 27.13-11.71l229.7-229.6C411.3 261.2 416 248.9 416 236.5zM149.6 477.7c-1.627 1.627-3.252 2.273-3.252 2.369c0 .0059-.0126-.0019 0 0c-41.13-2.845-114.3-40.23-114.3-113.2c0-1.085 .7056-2.82 2.32-4.438L192 204.7V288c0 17.67 14.33 32 32 32h83.25L149.6 477.7zM379.2 248L339.3 288L224 287.1L224 172.7l40-39.99c3.062-3.064 7.135-4.752 11.46-4.752c4.354 0 8.453 1.703 11.54 4.793l92.23 92.24C383.4 229.2 384 234 384 236.5C384 240.9 382.3 244.9 379.2 248zM431.1 352c-44.25 0-80 35.75-80 79.1S387.7 512 431.1 512c44.25 0 80-35.75 80-79.1S476.2 352 431.1 352zM431.1 480c-26.47 0-48-21.53-48-48s21.53-48 48-48s48 21.53 48 48S458.4 480 431.1 480z"/></svg>

<svg xmlns="http://www.w3.org/2000/svg" viewBox="0 0 512 512"><!-- Font Awesome Pro 6.0.0-alpha2 by @fontawesome - https://fontawesome.com License - https://fontawesome.com/license (Commercial License) --><path d="M416.01 236.523C416.01 224.176 411.299 211.828 401.877 202.406L367.054 167.58L507.322 27.313C510.447 24.188 512.01 20.094 512.01 16C512.01 7.473 505.144 0 496.01 0C491.916 0 487.822 1.562 484.697 4.688L344.429 144.955L309.644 110.166C300.205 100.725 287.838 95.998 275.472 95.998C263.135 95.998 250.801 100.703 241.381 110.123C-5.319 356.794 0.009 345.648 0.009 366.842C0.009 473.921 112.234 512 145.09 512C154.929 512 164.676 507.834 172.222 500.289L401.873 270.646C411.297 261.223 416.01 248.873 416.01 236.523ZM149.597 477.658C147.97 479.285 146.337 479.925 146.337 480.022C146.337 480.027 146.343 480.031 146.355 480.033C105.225 477.189 32.01 439.8 32.01 366.844C32.01 365.759 32.715 364.025 34.33 362.406L192.01 204.742V288C192.01 305.673 206.336 320 224.01 320H307.262L149.597 477.658ZM379.246 248.018L339.262 288H224.01V172.744L256.775 139.982L264.01 132.75C267.072 129.686 271.144 127.998 275.472 127.998C279.826 127.998 283.926 129.701 287.015 132.791L379.25 225.033C383.392 229.176 384.01 234.01 384.01 236.523C384.01 240.865 382.318 244.947 379.246 248.018ZM431.98 352C387.73 352 351.978 387.75 351.978 432S387.73 512 431.98 512C476.232 512 511.982 476.25 511.982 432S476.232 352 431.98 352ZM431.98 480C405.512 480 383.978 458.467 383.978 432S405.512 384 431.98 384S479.982 405.533 479.982 432S458.449 480 431.98 480Z "></path></svg>
